X: 1
T: Danza’l Osu
M: 2/4
L: 1/8
R: polka
K: Dmaj
|:BEE B/A/|BEE G/A/|BBAG|A3 G/A/|
BB A/G/F|GG F/E/D|EG F/E/D|E4:|
|:E/F/G E/F/G|FDD2|E/F/G E/F/G|A3 G/A/|
BB A/G/F|GG F/E/D|EG F/E/D|E4:|

